X:142
T:Bath Waltz. HSJJ.144
M:3/8
L:1/16
Q:3/8=60
S:HSJ Jackson,Wyresdale,Lancs.1823
R:.Waltz
O:England
A:Lancashire
H:1823
Z:vmp.Chris Partington.
K:C
(3GAB|c2c2c2|c4Bc|e2e2e2|e4ce|g4ec|a4fd|B2BcdB|c4:|!
|:eg|gf f2 dB|dc c2 eg|gf f2a2|c’4eg|!gf f2 dB|dc c2 eg|a^gafdB|c4:|!
|:G2|c2B2c2|d4e2|f2A2d2|c2B2G2|c2B2c2|a^gabc’a|gagfed|c4:|

